assets/images/secret.svg

<svg width="14" height="22" viewBox="0 0 14 22" fill="none" xmlns="http://www.w3.org/2000/svg">
<path d="M7.25688 14.83V14.95H3.41688V14.29C3.41688 13.29 3.58688 12.55 3.92688 12.07C4.26688 11.57 4.89688 11.02 5.81688 10.42L7.91688 9.07C8.59688 8.61 9.10688 8.17 9.44688 7.75C9.78688 7.33 9.95688 6.79 9.95688 6.13C9.95688 5.31 9.69688 4.68 9.17688 4.24C8.67688 3.8 8.00688 3.58 7.16688 3.58C6.28688 3.58 5.59688 3.85 5.09688 4.39C4.59688 4.93 4.34688 5.64 4.34688 6.52V7.39H0.626875V6.31C0.626875 4.39 1.23688 2.92 2.45688 1.9C3.67688 0.859999 5.24688 0.339998 7.16688 0.339998C9.16688 0.339998 10.7669 0.819999 11.9669 1.78C13.1869 2.74 13.7969 4.19 13.7969 6.13C13.7969 7.49 13.4769 8.6 12.8369 9.46C12.1969 10.32 11.2369 11.15 9.95688 11.95L8.12688 13.12C7.54688 13.54 7.25688 14.11 7.25688 14.83ZM3.05688 22V17.23H7.61687V22H3.05688Z" fill="black" fill-opacity="0.8"/>
</svg>

<svg xmlns="http://www.w3.org/2000/svg" width="14" height="22" fill="none"><path fill="#000" fill-opacity=".8" d="M7.257 14.83v.12h-3.84v-.66q0-1.5.51-2.22.51-.75 1.89-1.65l2.1-1.35q1.02-.69 1.53-1.32t.51-1.62q0-1.23-.78-1.89-.75-.66-2.01-.66-1.32 0-2.07.81t-.75 2.13v.87H.627V6.31q0-2.88 1.83-4.41Q4.287.34 7.167.34q3 0 4.8 1.44 1.83 1.44 1.83 4.35 0 2.04-.96 3.33t-2.88 2.49l-1.83 1.17q-.87.63-.87 1.71M3.057 22v-4.77h4.56V22z"/></svg>
